dist/img/sprites/hApi.svg

<svg width="32" height="32" viewBox="0 0 32 32" fill="none" xmlns="http://www.w3.org/2000/svg">
<g clip-path="url(#clip0_730_5365)">
<path d="M31.9691 7.8C31.9791 6.39 31.9791 4.98 31.9691 3.58C31.9591 2.42 31.2191 1.69 30.0491 1.69H27.6491H25.8091L25.7691 1.21C25.7091 0.22 25.4891 0 24.5391 0H22.8391H19.1491C16.6291 0 14.4491 1.62 13.7091 4.03L13.4791 4.83H11.9091C10.9191 4.83 9.93913 4.83 8.94913 4.83C8.52913 4.83 8.08913 4.85 7.68913 4.93C4.38913 5.57 2.32913 8.46 2.79913 11.81C3.16913 14.44 5.50913 16.64 8.11913 16.82C9.06913 16.89 10.0391 16.88 10.9791 16.88H11.9291C13.0691 16.88 14.1991 16.88 15.3291 16.88C17.4291 16.88 19.5291 16.88 21.6291 16.9C23.7491 16.92 25.5191 18.57 25.7491 20.72C25.9791 22.92 24.5191 24.94 22.4191 25.32C21.6091 25.47 20.7891 25.48 19.9891 25.49C19.6391 25.49 19.2891 25.49 18.9491 25.52L18.5391 25.54L18.2991 24.71C17.6391 22.47 15.5891 20.78 13.4291 20.69C11.7991 20.62 10.1391 20.64 8.51913 20.65H7.00913C6.64913 20.66 6.33912 20.94 6.26912 21.33C6.24912 21.43 6.23913 21.54 6.22913 21.66L6.14913 22.35H1.93913C0.779125 22.35 0.0491251 23.06 0.0291251 24.21C0.00912513 25.63 0.0191251 27.05 0.0291251 28.47C0.0391251 29.62 0.769125 30.34 1.92913 30.34C2.70913 30.34 3.48913 30.34 4.27913 30.34H5.31913H6.10913L6.18913 30.75C6.21913 30.87 6.21913 30.92 6.22913 30.96C6.27913 31.76 6.54913 32.02 7.35913 32.02H8.97913C10.2791 32.02 11.5791 32.02 12.8891 32.02C14.3991 32.01 15.7191 31.46 16.8191 30.39C17.5991 29.64 18.1091 28.72 18.3991 27.58L18.4991 27.19H19.7691C20.3791 27.19 20.9891 27.19 21.5991 27.19C23.7291 27.16 25.6391 26.02 26.6991 24.14C27.7591 22.28 27.7591 20.08 26.7191 18.25C25.5391 16.19 23.6791 15.15 21.1791 15.15H19.0391C15.5691 15.15 12.0991 15.16 8.63913 15.15C6.33913 15.14 4.49912 13.29 4.44912 10.94C4.39912 8.68 6.16913 6.74 8.39913 6.62C9.38913 6.57 10.3891 6.57 11.3591 6.58C11.8791 6.58 12.3891 6.58 12.8991 6.58C13.2891 6.6 13.5491 6.78 13.6691 7.19C14.4591 9.84 16.5691 11.4 19.3091 11.4C19.8491 11.4 20.3791 11.4 20.9191 11.4C22.0691 11.4 23.2091 11.39 24.3591 11.42C25.3191 11.45 25.7491 11.28 25.8091 10.2L25.8391 9.71H30.0591C31.2491 9.71 31.9691 9.01 31.9791 7.84L31.9691 7.8ZM6.21912 28.55H1.77913V24.05H6.21912V28.55ZM14.9991 29.64C14.3591 30.06 13.6191 30.27 12.7991 30.27C12.1991 30.27 11.5991 30.27 10.9991 30.27C10.4691 30.27 9.94913 30.27 9.41913 30.27H8.69913C8.63913 30.27 8.56913 30.27 8.48913 30.25L8.05913 30.18L7.97913 29.73V22.44L8.42913 22.38C8.56913 22.36 8.64913 22.34 8.73913 22.34H9.78913C10.8291 22.34 11.8691 22.34 12.8991 22.34C14.6591 22.36 16.1691 23.51 16.6491 25.21C17.1391 26.9 16.4691 28.67 14.9891 29.63L14.9991 29.64ZM24.0091 9.37L23.6391 9.6L23.4191 9.64C22.9291 9.64 22.4391 9.64 21.9591 9.64C21.6091 9.64 21.2591 9.64 20.9091 9.64C20.1191 9.64 19.3191 9.62 18.5191 9.55C16.5591 9.37 15.0991 7.55 15.1991 5.41C15.2891 3.47 16.9191 1.82 18.8491 1.74C19.9091 1.69 20.9891 1.7 22.0191 1.7C22.4591 1.7 22.8991 1.7 23.3391 1.7H23.4191L23.9591 1.85L24.0191 2.25V9.34L24.0091 9.37ZM30.2191 7.94H25.7991V3.44H30.2191V7.94Z" fill="#4B8125"/>
</g>
<defs>
<clipPath id="clip0_730_5365">
<rect width="32" height="32" fill="white"/>
</clipPath>
</defs>
</svg>

<svg width="32" height="32" viewBox="0 0 32 32" fill="none" xmlns="http://www.w3.org/2000/svg"><g clip-path="url(#clip0_730_5365)"><path d="M31.97 7.8c.01-1.41.01-2.82 0-4.22-.01-1.16-.75-1.89-1.92-1.89h-4.24l-.04-.48C25.71.22 25.49 0 24.54 0h-5.39c-2.52 0-4.7 1.62-5.44 4.03l-.23.8H8.95c-.42 0-.86.02-1.26.1-3.3.64-5.36 3.53-4.89 6.88.37 2.63 2.71 4.83 5.32 5.01.95.07 1.92.06 2.86.06h4.35c2.1 0 4.2 0 6.3.02 2.12.02 3.89 1.67 4.12 3.82.23 2.2-1.23 4.22-3.33 4.6-.81.15-1.63.16-2.43.17-.35 0-.7 0-1.04.03l-.41.02-.24-.83c-.66-2.24-2.71-3.93-4.87-4.02-1.63-.07-3.29-.05-4.91-.04H7.01c-.36.01-.67.29-.74.68-.02.1-.03.21-.04.33l-.08.69H1.94c-1.16 0-1.89.71-1.91 1.86-.02 1.42-.01 2.84 0 4.26.01 1.15.74 1.87 1.9 1.87h4.18l.08.41c.03.12.03.17.04.21.05.8.32 1.06 1.13 1.06h5.53c1.51-.01 2.83-.56 3.93-1.63.78-.75 1.29-1.67 1.58-2.81l.1-.39h3.1c2.13-.03 4.04-1.17 5.1-3.05 1.06-1.86 1.06-4.06.02-5.89-1.18-2.06-3.04-3.1-5.54-3.1h-2.14c-3.47 0-6.94.01-10.4 0-2.3-.01-4.14-1.86-4.19-4.21-.05-2.26 1.72-4.2 3.95-4.32.99-.05 1.99-.05 2.96-.04h1.54c.39.02.65.2.77.61.79 2.65 2.9 4.21 5.64 4.21h1.61c1.15 0 2.29-.01 3.44.02.96.03 1.39-.14 1.45-1.22l.03-.49h4.22c1.19 0 1.91-.7 1.92-1.87l-.01-.04zM6.22 28.55H1.78v-4.5h4.44v4.5zM15 29.64c-.64.42-1.38.63-2.2.63H8.7c-.06 0-.13 0-.21-.02l-.43-.07-.08-.45v-7.29l.45-.06c.14-.02.22-.04.31-.04h4.16c1.76.02 3.27 1.17 3.75 2.87.49 1.69-.18 3.46-1.66 4.42l.01.01zm9.01-20.27l-.37.23-.22.04h-2.51c-.79 0-1.59-.02-2.39-.09-1.96-.18-3.42-2-3.32-4.14.09-1.94 1.72-3.59 3.65-3.67 1.06-.05 2.14-.04 3.17-.04h1.4l.54.15.06.4v7.09l-.01.03zm6.21-1.43H25.8v-4.5h4.42v4.5z" fill="#4B8125"/></g><defs><clipPath id="clip0_730_5365"><path fill="#fff" d="M0 0h32v32H0z"/></clipPath></defs></svg>
